icon-themes/sifr_svg/cmd/32/resetattributes.svg

<?xml version="1.0" encoding="UTF-8" standalone="no"?>
<svg
   xmlns:dc="http://purl.org/dc/elements/1.1/"
   xmlns:cc="http://creativecommons.org/ns#"
   xmlns:rdf="http://www.w3.org/1999/02/22-rdf-syntax-ns#"
   xmlns:svg="http://www.w3.org/2000/svg"
   xmlns="http://www.w3.org/2000/svg"
   xmlns:sodipodi="http://sodipodi.sourceforge.net/DTD/sodipodi-0.dtd"
   xmlns:inkscape="http://www.inkscape.org/namespaces/inkscape"
   viewBox="0 0 32 32"
   version="1.1"
   id="svg5"
   sodipodi:docname="resetattributes.svg"
   inkscape:version="0.92.1 r15371"
   inkscape:export-filename="/home/matthias/GIT/icons/sifr_svg/resetattributes.png"
   inkscape:export-xdpi="96"
   inkscape:export-ydpi="96"
   width="32"
   height="32">
  <defs
     id="defs9" />
  <sodipodi:namedview
     pagecolor="#ffffff"
     bordercolor="#666666"
     borderopacity="1"
     objecttolerance="10"
     gridtolerance="10"
     guidetolerance="10"
     inkscape:pageopacity="0"
     inkscape:pageshadow="2"
     inkscape:window-width="1920"
     inkscape:window-height="1007"
     id="namedview7"
     showgrid="true"
     inkscape:zoom="16"
     inkscape:cx="14.268961"
     inkscape:cy="12.430051"
     inkscape:window-x="0"
     inkscape:window-y="44"
     inkscape:window-maximized="1"
     inkscape:current-layer="svg5"
     inkscape:snap-bbox="true"
     inkscape:snap-bbox-edge-midpoints="true"
     inkscape:snap-bbox-midpoints="true"
     inkscape:bbox-nodes="true"
     inkscape:bbox-paths="true"
     inkscape:snap-object-midpoints="true"
     inkscape:snap-center="true"
     inkscape:snap-intersection-paths="true"
     inkscape:snap-smooth-nodes="true"
     inkscape:object-paths="true">
    <inkscape:grid
       type="xygrid"
       id="grid4486" />
  </sodipodi:namedview>
  <metadata
     id="metadata7838">
    <rdf:RDF>
      <cc:Work
         rdf:about="">
        <dc:format>image/svg+xml</dc:format>
        <dc:type
           rdf:resource="http://purl.org/dc/dcmitype/StillImage" />
        <dc:title />
        <cc:license
           rdf:resource="http://creativecommons.org/licenses/by-sa/4.0/" />
        <dc:rights>
          <cc:Agent>
            <dc:title>The Document Foundation</dc:title>
          </cc:Agent>
        </dc:rights>
        <dc:contributor>
          <cc:Agent>
            <dc:title>Matthias Freund</dc:title>
          </cc:Agent>
        </dc:contributor>
      </cc:Work>
      <cc:License
         rdf:about="http://creativecommons.org/licenses/by-sa/4.0/">
        <cc:permits
           rdf:resource="http://creativecommons.org/ns#Reproduction" />
        <cc:permits
           rdf:resource="http://creativecommons.org/ns#Distribution" />
        <cc:requires
           rdf:resource="http://creativecommons.org/ns#Notice" />
        <cc:requires
           rdf:resource="http://creativecommons.org/ns#Attribution" />
        <cc:permits
           rdf:resource="http://creativecommons.org/ns#DerivativeWorks" />
        <cc:requires
           rdf:resource="http://creativecommons.org/ns#ShareAlike" />
      </cc:License>
    </rdf:RDF>
  </metadata>
  <rect
     style="display:inline;opacity:1;fill:#555753;fill-opacity:1;fill-rule:evenodd;stroke:none;stroke-width:3.24037027;stroke-linecap:round;stroke-linejoin:round;stroke-miterlimit:4;stroke-dasharray:none;stroke-opacity:1;paint-order:normal;filter:url(#filter8750)"
     id="rect8959-5"
     width="14"
     height="3"
     x="4"
     y="27" />
  <path
     style="display:inline;opacity:1;fill:#555753;fill-opacity:1;fill-rule:nonzero;stroke:none;stroke-width:2;stroke-linecap:round;stroke-linejoin:miter;stroke-miterlimit:4;stroke-dasharray:none;stroke-dashoffset:4.5999999;stroke-opacity:1;filter:url(#filter8750)"
     d="m 21,20.00024 c -0.554,0 -1,0.446 -1,1 v 8 c 0,0.554 0.446,1 1,1 h 8 c 0.554,0 1,-0.446 1,-1 v -8 c 0,-0.554 -0.446,-1 -1,-1 z m 0,1 h 2 l 2,2 2,-2 h 2 v 2 l -2,2 2,2 V 29 l -2,2.4e-4 -2,-2 -2,2 h -2 v -2 l 2,-2 -2,-2 z"
     id="rect8463-3"
     inkscape:connector-curvature="0"
     sodipodi:nodetypes="sssssssssccccccccccccccccc"
     inkscape:export-filename="/home/matthias/GIT/icons/exported-sifr/cmd/lc_resetattributes.png"
     inkscape:export-xdpi="89"
     inkscape:export-ydpi="89" />
  <path
     style="color:#000000;font-style:normal;font-variant:normal;font-weight:normal;font-stretch:normal;font-size:medium;line-height:normal;font-family:sans-serif;text-indent:0;text-align:start;text-decoration:none;text-decoration-line:none;text-decoration-style:solid;text-decoration-color:#000000;letter-spacing:normal;word-spacing:normal;text-transform:none;writing-mode:lr-tb;direction:ltr;baseline-shift:baseline;text-anchor:start;white-space:normal;clip-rule:nonzero;display:inline;overflow:visible;visibility:visible;opacity:1;isolation:auto;mix-blend-mode:normal;color-interpolation:sRGB;color-interpolation-filters:linearRGB;solid-color:#000000;solid-opacity:1;fill:#555753;fill-opacity:1;fill-rule:nonzero;stroke:none;stroke-width:4;stroke-linecap:butt;stroke-linejoin:miter;stroke-miterlimit:4;stroke-dasharray:none;stroke-dashoffset:0;stroke-opacity:1;marker:none;filter:url(#filter8750);color-rendering:auto;image-rendering:auto;shape-rendering:auto;text-rendering:auto;enable-background:accumulate"
     d="M 8 5 L 8 9 L 20.996094 9 C 21.852414 9.000032 22.211097 9.5620036 21.960938 10.464844 L 21.257812 13 L 10.78125 13 C 7.10421 13 4.5192512 15.685209 3.7695312 18.480469 C 3.3946514 19.878089 3.4178075 21.434203 4.2421875 22.789062 C 5.0665675 24.143904 6.7498664 25 8.5664062 25 L 18 25 L 18 21 L 8.5664062 21 C 7.7706663 21 7.7484763 20.856198 7.6601562 20.710938 C 7.5717562 20.565738 7.4712128 20.121911 7.6328125 19.519531 C 7.9559328 18.314791 9.09183 17 10.78125 17 L 20.152344 17 L 19.802734 18.263672 C 20.171976 18.097518 20.576569 18 21 18 L 24.013672 18 L 24.300781 17 L 25.816406 11.535156 C 26.685766 8.3975964 24.356475 5 20.996094 5 L 8 5 z "
     id="path11643-3-5-9-3" />
</svg>

<svg xmlns="http://www.w3.org/2000/svg" viewBox="0 0 32 32">
 <path
     style="fill:#555753"
     d="M 8 5 L 8 9 L 20.996094 9 C 21.852414 9.000032 22.211097 9.5620034 21.960938 10.464844 L 21.257812 13 L 10.78125 13 C 7.10421 13 4.5192512 15.685209 3.7695312 18.480469 C 3.3946515 19.878089 3.4178075 21.434203 4.2421875 22.789062 C 5.0665675 24.143904 6.7498665 25 8.5664062 25 L 18 25 L 18 21 L 8.5664062 21 C 7.7706664 21 7.7484764 20.856198 7.6601562 20.710938 C 7.5717562 20.565738 7.4712128 20.121911 7.6328125 19.519531 C 7.9559328 18.314791 9.09183 17 10.78125 17 L 20.152344 17 L 19.802734 18.263672 C 20.171976 18.097518 20.576569 18 21 18 L 24.013672 18 L 24.300781 17 L 25.816406 11.535156 C 26.685766 8.3975966 24.356475 5 20.996094 5 L 8 5 z M 21 20 C 20.446 20 20 20.446 20 21 L 20 29 C 20 29.554 20.446 30 21 30 L 29 30 C 29.554 30 30 29.554 30 29 L 30 21 C 30 20.446 29.554 20 29 20 L 21 20 z M 21 21 L 23 21 L 25 23 L 27 21 L 29 21 L 29 23 L 27 25 L 29 27 L 29 29 L 27 29 L 25 27 L 23 29 L 21 29 L 21 27 L 23 25 L 21 23 L 21 21 z M 4 27 L 4 30 L 18 30 L 18 27 L 4 27 z "
     />
 </svg>
